papirus/16x16/apps/wingpanel.svg

<svg height="16" viewBox="0 0 16 16" width="16" xmlns="http://www.w3.org/2000/svg"><path d="m .80000004 1c-.4432 0-.8.3468709-.8.7777996v.7777435 10.8888579.777799c0 .430873.3568.7778.8.7778h14.39999996c.4432 0 .8-.346927.8-.7778v-.777799-10.8888579-.7777435c0-.4309287-.3568-.7777996-.8-.7777996z" fill="#4ab3e4"/><path d="m .80000004 1c-.4432 0-.8.3468709-.8.7777996v1.2222004h15.99999996v-1.2222004c0-.4309287-.3568-.7777996-.8-.7777996z" fill="#4d4d4d"/></svg>

<?xml version="1.0" encoding="UTF-8" standalone="no"?>
<!-- Created with Inkscape (http://www.inkscape.org/) -->

<svg
   xmlns:dc="http://purl.org/dc/elements/1.1/"
   xmlns:cc="http://creativecommons.org/ns#"
   xmlns:rdf="http://www.w3.org/1999/02/22-rdf-syntax-ns#"
   xmlns:svg="http://www.w3.org/2000/svg"
   xmlns="http://www.w3.org/2000/svg"
   xmlns:sodipodi="http://sodipodi.sourceforge.net/DTD/sodipodi-0.dtd"
   xmlns:inkscape="http://www.inkscape.org/namespaces/inkscape"
   id="svg4222"
   height="16"
   width="16"
   version="1.1"
   viewBox="0 0 16 16"
   inkscape:version="0.91 r13725"
   sodipodi:docname="wingpanel.svg">
  <defs
     id="defs11" />
  <sodipodi:namedview
     pagecolor="#ffffff"
     bordercolor="#666666"
     borderopacity="1"
     objecttolerance="10"
     gridtolerance="10"
     guidetolerance="10"
     inkscape:pageopacity="0"
     inkscape:pageshadow="2"
     inkscape:window-width="1600"
     inkscape:window-height="847"
     id="namedview9"
     showgrid="false"
     inkscape:zoom="14.75"
     inkscape:cx="-6.0338983"
     inkscape:cy="10.576271"
     inkscape:window-x="0"
     inkscape:window-y="0"
     inkscape:window-maximized="1"
     inkscape:current-layer="svg4222" />
  <metadata
     id="metadata4227">
    <rdf:RDF>
      <cc:Work
         rdf:about="">
        <dc:format>image/svg+xml</dc:format>
        <dc:type
           rdf:resource="http://purl.org/dc/dcmitype/StillImage" />
        <dc:title></dc:title>
      </cc:Work>
    </rdf:RDF>
  </metadata>
  <path
     style="fill:#4ab3e4"
     inkscape:connector-curvature="0"
     d="m 0.80000004,1 c -0.4432,0 -0.8,0.3468709 -0.8,0.7777996 l 0,0.7777435 0,10.8888579 0,0.777799 c 0,0.430873 0.3568,0.7778 0.8,0.7778 L 15.2,15 C 15.6432,15 16,14.653073 16,14.2222 L 16,13.444401 16,2.5555431 16,1.7777996 C 16,1.3468709 15.6432,1 15.2,1 L 0.80000004,1 Z"
     id="rect4203" />
  <path
     style="fill:#4d4d4d"
     inkscape:connector-curvature="0"
     d="m 0.80000004,1 c -0.4432,0 -0.8,0.3468709 -0.8,0.7777996 L 4e-8,3 16,3 16,1.7777996 C 16,1.3468709 15.6432,1 15.2,1 Z"
     id="rect3328"
     sodipodi:nodetypes="ssccsss" />
</svg>
